src/lib/packages/icons/src/assets/filled/hard-drive.svg

<svg width="24" height="24" viewBox="0 0 24 24" fill="none" xmlns="http://www.w3.org/2000/svg">
<path d="M18 13H6C4 13 3 14 3 16V18C3 20 4 21 6 21H18C20 21 21 20 21 18V16C21 14 20 13 18 13ZM14 18C13.448 18 13 17.552 13 17C13 16.448 13.448 16 14 16C14.552 16 15 16.448 15 17C15 17.552 14.552 18 14 18ZM17 18C16.448 18 16 17.552 16 17C16 16.448 16.448 16 17 16C17.552 16 18 16.448 18 17C18 17.552 17.552 18 17 18ZM20.6699 12.1799C19.9599 11.7399 19.06 11.5 18 11.5H6C4.94 11.5 4.04008 11.7399 3.33008 12.1799L4.55005 5.45996C4.81005 4.03996 6 3 7.5 3H16.5C18 3 19.19 4.03996 19.45 5.45996L20.6699 12.1799Z" fill="currentColor"/>
</svg>

<svg xmlns="http://www.w3.org/2000/svg" width="24" height="24" fill="none"><path fill="currentColor" d="M18 13H6c-2 0-3 1-3 3v2c0 2 1 3 3 3h12c2 0 3-1 3-3v-2c0-2-1-3-3-3Zm-4 5a1 1 0 1 1 0-2 1 1 0 0 1 0 2Zm3 0a1 1 0 1 1 0-2 1 1 0 0 1 0 2Zm3.67-5.82c-.71-.44-1.61-.68-2.67-.68H6c-1.06 0-1.96.24-2.67.68l1.22-6.72C4.81 4.04 6 3 7.5 3h9c1.5 0 2.69 1.04 2.95 2.46l1.22 6.72Z"/></svg>
